raw/symbols/ens.svg

<svg width="42" height="42" viewBox="0 0 42 42" fill="none" xmlns="http://www.w3.org/2000/svg">
<rect width="42" height="42" rx="21" fill="url(#paint0_linear_9004_369922)"/>
<path d="M10.2658 17.9584C10.5838 18.6341 11.3787 19.9855 11.3787 19.9855L20.4804 4.92188L11.6171 11.1222C11.1005 11.4799 10.6633 11.9568 10.3453 12.5133C9.51063 14.2223 9.51063 16.2096 10.2658 17.9584Z" fill="#F3F3F3"/>
<path d="M6.68577 22.8788C6.8845 25.7802 8.35509 28.4829 10.6603 30.2317L20.4775 37.068C20.4775 37.068 14.3169 28.2047 9.15 19.3812C8.63331 18.467 8.2756 17.4337 8.11662 16.3605C8.03712 15.8836 8.03712 15.4066 8.11662 14.9297C7.99738 15.1682 7.71916 15.6849 7.71916 15.6849C7.20247 16.758 6.84476 17.9106 6.64603 19.103C6.52679 20.3748 6.52679 21.6467 6.68577 22.8788Z" fill="#F3F3F3"/>
<path d="M31.7259 24.0837C31.4079 23.408 30.613 22.0566 30.613 22.0566L21.5112 37.0805L30.4142 30.9199C30.9309 30.5622 31.3681 30.0853 31.6861 29.5288C32.481 27.8198 32.5208 25.8325 31.7259 24.0837Z" fill="#F3F3F3"/>
<path d="M35.344 19.1111C35.1452 16.2096 33.6747 13.5069 31.3694 11.7581L21.5522 4.92188C21.5522 4.92188 27.7128 13.7851 32.8797 22.6087C33.3964 23.5228 33.7541 24.5562 33.9131 25.6293C33.9926 26.1063 33.9926 26.5832 33.9131 27.0602C34.0324 26.8217 34.3106 26.305 34.3106 26.305C34.8273 25.2319 35.185 24.0793 35.3837 22.9266C35.4632 21.615 35.4632 20.3829 35.344 19.1111Z" fill="#F3F3F3"/>
<path d="M10.3424 12.5133C10.6603 11.9568 11.0578 11.4799 11.6142 11.1222L20.4775 4.92188L11.3758 19.9457C11.3758 19.9457 10.5808 18.5944 10.2629 17.9187C9.50771 16.2096 9.50771 14.2223 10.3424 12.5133ZM6.68577 22.8869C6.8845 25.7883 8.35509 28.491 10.6603 30.2398L20.4775 37.0761C20.4775 37.0761 14.3169 28.2128 9.15 19.3893C8.63331 18.4751 8.2756 17.4417 8.11662 16.3686C8.03712 15.8917 8.03712 15.4147 8.11662 14.9378C7.99738 15.1762 7.71916 15.6929 7.71916 15.6929C7.20247 16.7661 6.84476 17.9187 6.64603 19.1111C6.52679 20.3829 6.52679 21.6548 6.68577 22.8869ZM31.7255 24.0793C31.4075 23.4036 30.6126 22.0522 30.6126 22.0522L21.5109 37.0761L30.4139 30.9155C30.9306 30.5578 31.3678 30.0808 31.6858 29.5244C32.4807 27.8153 32.5204 25.8281 31.7255 24.0793ZM35.3026 19.1508C35.1039 16.2494 33.6333 13.5467 31.3281 11.7979L21.5506 4.92188C21.5506 4.92188 27.7112 13.7851 32.8781 22.6087C33.3948 23.5228 33.7525 24.5562 33.9115 25.6293C33.991 26.1063 33.991 26.5832 33.9115 27.0602C34.0308 26.8217 34.309 26.305 34.309 26.305C34.8257 25.2319 35.1834 24.0793 35.3821 22.9266C35.4616 21.615 35.4616 20.3829 35.3026 19.1508Z" fill="#F3F3F3"/>
<defs>
<linearGradient id="paint0_linear_9004_369922" x1="21" y1="0" x2="21" y2="42" gradientUnits="userSpaceOnUse">
<stop stop-color="#7B99FA"/>
<stop offset="1" stop-color="#51B4F2"/>
</linearGradient>
</defs>
</svg>

<svg xmlns="http://www.w3.org/2000/svg" width="42" height="42" fill="none"><rect width="42" height="42" fill="url(#a)" rx="21"/><path fill="#F3F3F3" d="M10.266 17.958c.318.676 1.113 2.027 1.113 2.027L20.48 4.922l-8.863 6.2a4.271 4.271 0 0 0-1.272 1.391c-.834 1.71-.834 3.697-.08 5.445ZM6.686 22.879a10.149 10.149 0 0 0 3.974 7.353l9.817 6.836s-6.16-8.863-11.327-17.687a8.786 8.786 0 0 1-1.033-3.02 4.322 4.322 0 0 1 0-1.431c-.12.238-.398.755-.398.755a12.68 12.68 0 0 0-1.073 3.418 17.11 17.11 0 0 0 .04 3.776ZM31.726 24.084c-.318-.676-1.113-2.027-1.113-2.027L21.511 37.08l8.903-6.161a4.27 4.27 0 0 0 1.272-1.391 6.514 6.514 0 0 0 .04-5.445ZM35.344 19.111a10.149 10.149 0 0 0-3.975-7.353l-9.817-6.836s6.16 8.863 11.328 17.687a8.786 8.786 0 0 1 1.033 3.02c.08.477.08.954 0 1.431.12-.238.398-.755.398-.755a12.863 12.863 0 0 0 1.073-3.378c.08-1.312.08-2.544-.04-3.816Z"/><path fill="#F3F3F3" d="M10.342 12.513c.318-.556.716-1.033 1.272-1.39l8.863-6.201-9.101 15.024s-.795-1.352-1.113-2.027c-.755-1.71-.755-3.697.08-5.406ZM6.686 22.887a10.149 10.149 0 0 0 3.974 7.353l9.817 6.836S14.317 28.213 9.15 19.39a8.787 8.787 0 0 1-1.033-3.02 4.322 4.322 0 0 1 0-1.431c-.12.238-.398.755-.398.755a12.682 12.682 0 0 0-1.073 3.418 17.11 17.11 0 0 0 .04 3.776Zm25.04 1.192c-.319-.675-1.113-2.027-1.113-2.027L21.51 37.076l8.903-6.16a4.271 4.271 0 0 0 1.272-1.392 6.514 6.514 0 0 0 .04-5.445Zm3.577-4.928a10.148 10.148 0 0 0-3.975-7.353l-9.777-6.876s6.16 8.863 11.327 17.687a8.786 8.786 0 0 1 1.033 3.02c.08.477.08.954 0 1.431.12-.238.398-.755.398-.755a12.863 12.863 0 0 0 1.073-3.378c.08-1.312.08-2.544-.08-3.776Z"/><defs><linearGradient id="a" x1="21" x2="21" y1="0" y2="42" gradientUnits="userSpaceOnUse"><stop stop-color="#7B99FA"/><stop offset="1" stop-color="#51B4F2"/></linearGradient></defs></svg>
